X:421
T:Paddy the Weaver
R:jig
H:Also in D, #415
Z:hn-jig-421
M:6/8
L:1/8
K:G
AG | F2D DAG | F2D DAG | F2D DED | C2A, A,AG |
F2D DAG | F2D D2A | BAB cAF | AGF G :|
|: zA | ~B3 cde | dcB ABc | B2G GAG | F2D D2A |
BAB cde | dcB ABc | BAB cAF | AGF G :|

